src/icons/outline/metrics/metric-custom.svg

<svg width="24" height="24" viewBox="0 0 24 24" fill="none" xmlns="http://www.w3.org/2000/svg">
<g clip-path="url(#clip0_4837_333)">
<path fill-rule="evenodd" clip-rule="evenodd" d="M9.60068 6.0039C10.7945 5.50941 12.1087 5.37974 13.3761 5.63183C14.6432 5.88392 15.8072 6.50641 16.7208 7.41992C17.588 8.28717 18.1931 9.38065 18.4679 10.5732C18.4719 10.587 18.4754 10.601 18.4786 10.6152C18.4818 10.6296 18.4851 10.6448 18.4874 10.6592C18.495 10.6945 18.5018 10.7301 18.5089 10.7656C18.7609 12.0329 18.6313 13.3463 18.1368 14.54C17.9133 15.0797 17.6197 15.5841 17.2657 16.041C17.2583 16.0517 17.2504 16.0629 17.2423 16.0732C17.2344 16.0833 17.2262 16.093 17.2179 16.1025C16.7986 16.6305 16.2972 17.094 15.7306 17.4727C14.6564 18.1903 13.3935 18.5731 12.1017 18.5732C10.369 18.5732 8.70677 17.8853 7.48154 16.6602C6.25629 15.4349 5.56747 13.7728 5.56747 12.04C5.56749 10.7479 5.95115 9.48455 6.66904 8.41015C7.38689 7.3359 8.40702 6.49838 9.60068 6.0039ZM11.4132 6.92773C10.9737 6.98688 10.5411 7.10289 10.127 7.27441C9.1846 7.66481 8.37933 8.32662 7.81259 9.1748C7.24592 10.023 6.94346 11.02 6.94345 12.04C6.94345 13.408 7.48689 14.7202 8.45419 15.6875C9.42148 16.6547 10.7338 17.1982 12.1017 17.1982C13.1216 17.1981 14.1188 16.8957 14.9669 16.3291C15.2298 16.1534 15.4749 15.9548 15.6993 15.7363L11.6798 12.584L11.4132 12.0332V6.92773ZM13.6681 12.3945L16.5479 14.6533C16.6683 14.4486 16.7747 14.2348 16.8663 14.0137C17.1838 13.2471 17.3111 12.4178 17.2403 11.5967L13.6681 12.3945ZM12.7892 11.1816L16.9405 10.2549C16.6835 9.55847 16.2775 8.92196 15.7481 8.39257C15.0268 7.6714 14.1079 7.18045 13.1075 6.98144C13.0017 6.9604 12.8956 6.94205 12.7892 6.92773V11.1816Z" fill="#3C3B44"/>
<path fill-rule="evenodd" clip-rule="evenodd" d="M14.9825 1.05957C15.4814 0.948421 16.0026 0.993551 16.4747 1.18945C16.9469 1.38542 17.3475 1.72241 17.6212 2.15429C17.8948 2.58607 18.0284 3.09198 18.004 3.60254V3.60547L17.9376 4.88964C17.9301 5.03477 17.9515 5.18042 18.0001 5.31738C18.0487 5.45433 18.1235 5.5805 18.2208 5.68847C18.3182 5.79654 18.4361 5.8847 18.5675 5.94726C18.6988 6.0098 18.8412 6.04617 18.9864 6.05371H19.0987L20.3819 5.9873C20.8939 5.96055 21.4022 6.093 21.836 6.36621C22.2699 6.6395 22.6088 7.04025 22.8058 7.51367C23.0027 7.98712 23.0486 8.51032 22.9366 9.01074C22.8246 9.51108 22.5597 9.96431 22.1798 10.3086L21.2237 11.1719C21.1159 11.2694 21.0273 11.3872 20.9649 11.5186C20.9026 11.6499 20.8669 11.7923 20.8595 11.9375C20.8521 12.0829 20.8732 12.229 20.922 12.3662C20.9707 12.5032 21.0462 12.6293 21.1436 12.7373L21.2198 12.8135L21.2237 12.8164L22.1788 13.6787C22.5599 14.0221 22.8252 14.4753 22.9386 14.9756C23.0518 15.4758 23.0075 15.9987 22.8116 16.4727C22.6157 16.9467 22.2782 17.3487 21.8448 17.623C21.4113 17.8974 20.9031 18.0308 20.3907 18.0049L19.1065 17.9394C18.9613 17.9321 18.8158 17.9532 18.6788 18.0019C18.5416 18.0508 18.4148 18.126 18.3067 18.2236C18.1986 18.3213 18.1105 18.4397 18.0479 18.5713C17.9877 18.6982 17.9525 18.8355 17.9434 18.9756V19.1221L18.0079 20.3877C18.0345 20.9001 17.9018 21.4079 17.628 21.8418C17.3541 22.2758 16.9527 22.615 16.4786 22.8115C16.0046 23.0079 15.4811 23.0524 14.9806 22.9394C14.48 22.8265 14.0264 22.5617 13.6827 22.1807L12.8214 21.2246C12.724 21.1168 12.6059 21.0292 12.4747 20.9668C12.3432 20.9043 12.2002 20.8678 12.0548 20.8603C11.9094 20.853 11.7642 20.8751 11.627 20.9238C11.4915 20.9721 11.3661 21.0457 11.2589 21.1416C11.2286 21.1699 11.1993 21.1992 11.171 21.2295L10.3087 22.1807L10.3077 22.1816C9.96414 22.562 9.51085 22.8266 9.01083 22.9394C8.51038 23.0524 7.98677 23.0079 7.51279 22.8115C7.0389 22.6151 6.63728 22.2765 6.36337 21.8428C6.08948 21.409 5.95711 20.901 5.98349 20.3887L6.04892 19.1064C6.06292 18.8128 5.96017 18.5246 5.76279 18.3066C5.56855 18.0922 5.29822 17.9618 5.00986 17.9434H4.86337L3.58993 18.0088C3.08106 18.0293 2.57827 17.893 2.1495 17.6182C1.72064 17.3432 1.38625 16.9428 1.19247 16.4717C0.998788 16.0006 0.954286 15.4814 1.06552 14.9844C1.17683 14.4873 1.43837 14.0359 1.81454 13.6924L1.81747 13.6894L2.77353 12.8281C2.88162 12.7304 2.96889 12.6121 3.03134 12.4805C3.09383 12.3488 3.13053 12.2061 3.13779 12.0605C3.14503 11.915 3.1234 11.7691 3.07431 11.6318C3.02544 11.4952 2.94991 11.3693 2.85263 11.2617C2.82607 11.2329 2.79746 11.2052 2.76767 11.1777L1.81747 10.3174C1.43787 9.97374 1.17316 9.521 1.06064 9.02148C0.948168 8.52194 0.992909 7.99955 1.18857 7.52636C1.3843 7.05314 1.72187 6.65212 2.15439 6.37793C2.58681 6.10381 3.0932 5.96932 3.60458 5.99414H3.60654L4.89072 6.06054C5.03625 6.06808 5.18211 6.04683 5.31943 5.99804C5.45676 5.94925 5.58334 5.87405 5.6915 5.77636C5.79967 5.67865 5.8878 5.56042 5.95029 5.42871C6.01272 5.29708 6.04848 5.15429 6.05575 5.00879V4.88769L5.99325 3.59961C5.97183 3.09101 6.10715 2.58832 6.38095 2.15918C6.65487 1.72988 7.05401 1.39503 7.5245 1.20019C7.99488 1.00541 8.51372 0.959481 9.01083 1.06933C9.50791 1.17924 9.95936 1.4396 10.3038 1.81445L10.3058 1.81543L11.1768 2.76855C11.2744 2.87661 11.392 2.96485 11.5235 3.02734C11.655 3.08983 11.798 3.1254 11.9434 3.13281C12.0887 3.14015 12.2342 3.11906 12.3712 3.07031C12.5083 3.0215 12.6343 2.94616 12.7423 2.84863L12.7433 2.84765C12.7704 2.82322 12.7969 2.79768 12.8214 2.7705L12.8224 2.76953L13.6837 1.81347L13.6866 1.81152C14.0309 1.43356 14.4835 1.1708 14.9825 1.05957ZM15.2813 2.40234C15.0592 2.45189 14.8577 2.56832 14.7042 2.73632L14.7032 2.7373L13.8438 3.68945C13.7869 3.75281 13.7265 3.81412 13.6632 3.87109C13.4214 4.08911 13.1388 4.25706 12.8321 4.36621C12.5248 4.47554 12.1989 4.52341 11.8731 4.50683C11.5473 4.49023 11.2274 4.40956 10.9327 4.26953C10.6389 4.12984 10.3755 3.93363 10.1573 3.69238L10.1554 3.69043L9.29111 2.74511C9.13745 2.57812 8.93555 2.46208 8.71396 2.41308C8.49216 2.36406 8.26076 2.38384 8.05087 2.4707C7.84096 2.55763 7.66238 2.70693 7.54013 2.89843C7.41823 3.08948 7.3581 3.31363 7.36728 3.54004L7.4288 4.81836C7.43376 4.90549 7.43379 4.99294 7.4288 5.08007C7.4122 5.40522 7.33202 5.72439 7.19247 6.01855C7.05249 6.31351 6.85565 6.57802 6.61337 6.79687C6.37108 7.01572 6.08799 7.18458 5.78036 7.29394C5.4728 7.40323 5.14637 7.45137 4.8204 7.43457L3.53818 7.36816C3.31024 7.35723 3.08348 7.41691 2.89072 7.53906C2.69774 7.66139 2.54742 7.84064 2.46005 8.05175C2.37274 8.26285 2.35233 8.49588 2.40243 8.71875C2.45264 8.94172 2.57088 9.14446 2.74032 9.29785L3.69638 10.1631L3.87021 10.3369C4.08954 10.5788 4.25928 10.8615 4.36923 11.1689C4.4792 11.4765 4.52707 11.8027 4.51083 12.1289C4.49458 12.4552 4.41453 12.7752 4.2745 13.0703C4.13454 13.3653 3.93767 13.6297 3.6954 13.8486L2.74228 14.708L2.7413 14.71C2.57417 14.8631 2.45783 15.0639 2.40829 15.2852C2.35873 15.5068 2.37859 15.7381 2.46493 15.9482C2.55141 16.1585 2.70031 16.3372 2.89169 16.46C3.08216 16.5821 3.3053 16.6432 3.53134 16.6348L4.81064 16.5693C4.82229 16.5687 4.83412 16.5684 4.84579 16.5684H5.02939C5.04092 16.5684 5.05302 16.5688 5.06454 16.5693C5.72238 16.6026 6.34017 16.8955 6.78232 17.3838C7.16914 17.811 7.39426 18.3571 7.42294 18.9277V19.1758L7.35654 20.459C7.34475 20.6876 7.40421 20.9148 7.52646 21.1084C7.64873 21.302 7.82857 21.4534 8.04013 21.541C8.25154 21.6285 8.48492 21.648 8.7081 21.5977C8.93145 21.5472 9.13383 21.4288 9.2872 21.2588L9.28818 21.2578L10.1622 20.2949L10.3331 20.124C10.5752 19.9054 10.8587 19.7373 11.1661 19.6279C11.4734 19.5186 11.7993 19.4707 12.1251 19.4873C12.4508 19.5039 12.77 19.5846 13.0645 19.7246C13.3592 19.8646 13.6233 20.0616 13.8419 20.3037L14.7042 21.2588C14.8575 21.4288 15.06 21.5472 15.2833 21.5977C15.5067 21.6481 15.7407 21.6287 15.9522 21.541C16.1637 21.4534 16.3427 21.3019 16.4649 21.1084C16.5871 20.9147 16.6467 20.6877 16.6349 20.459L16.5684 19.1748C16.5679 19.1632 16.5675 19.1513 16.5675 19.1396V18.9561C16.5675 18.9444 16.5679 18.9325 16.5684 18.9209C16.585 18.595 16.6657 18.2752 16.8058 17.9805C16.9458 17.6858 17.1428 17.4218 17.3849 17.2031C17.6269 16.9845 17.9096 16.8155 18.2169 16.7061C18.5243 16.5966 18.8509 16.5489 19.1768 16.5654L20.4601 16.6309C20.6885 16.6423 20.9152 16.5832 21.1085 16.4609C21.302 16.3385 21.4527 16.1589 21.5401 15.9473C21.6275 15.7357 21.6473 15.5026 21.5968 15.2793C21.5462 15.056 21.428 14.8534 21.2579 14.7002L20.3058 13.8418L20.1212 13.6572C19.9035 13.4156 19.7351 13.1336 19.6261 12.8271C19.5168 12.5199 19.4689 12.1939 19.4854 11.8682C19.502 11.5423 19.5827 11.2224 19.7227 10.9277C19.8628 10.6331 20.0597 10.369 20.3018 10.1504L21.2569 9.28906C21.4261 9.13547 21.5439 8.93294 21.5938 8.70996C21.6438 8.48662 21.6232 8.25329 21.5352 8.04199C21.4473 7.83077 21.2962 7.6522 21.1026 7.53027C20.9575 7.43889 20.7942 7.38255 20.6251 7.36523L20.4542 7.36035L19.1739 7.42675H18.9132C18.5882 7.40963 18.2695 7.3284 17.9757 7.18847C17.6814 7.04825 17.4175 6.85149 17.1993 6.60937C16.9811 6.3672 16.8122 6.08459 16.7032 5.77734C16.5943 5.47009 16.5467 5.14391 16.5636 4.81836L16.63 3.53613C16.6407 3.30854 16.581 3.08309 16.4591 2.89062C16.3369 2.69789 16.1581 2.54741 15.9474 2.45996C15.7366 2.37257 15.504 2.35271 15.2813 2.40234Z" fill="#3C3B44"/>
</g>
<defs>
<clipPath id="clip0_4837_333">
<rect width="24" height="24" fill="white"/>
</clipPath>
</defs>
</svg>

<svg xmlns="http://www.w3.org/2000/svg" width="24" height="24" fill="none" viewBox="0 0 24 24"><g fill="currentColor" fill-rule="evenodd" clip-path="url(#a)" clip-rule="evenodd"><path d="M9.6 6.004a6.536 6.536 0 0 1 8.887 4.655l.022.107A6.533 6.533 0 1 1 9.6 6.004m1.813.924a5.16 5.16 0 0 0-4.47 5.112 5.159 5.159 0 0 0 8.756 3.696l-4.02-3.152-.266-.55zm2.255 5.467 2.88 2.258a5.15 5.15 0 0 0 .692-3.056zm-.879-1.213 4.152-.927a5.16 5.16 0 0 0-4.152-3.327z"/><path d="M14.983 1.06a2.484 2.484 0 0 1 3.021 2.543v.002l-.066 1.285a1.11 1.11 0 0 0 1.048 1.164h.113l1.283-.067a2.486 2.486 0 0 1 2.555 3.024c-.112.5-.377.953-.757 1.298l-.956.863a1.1 1.1 0 0 0-.364.765 1.1 1.1 0 0 0 .284.8l.076.076.004.003.955.863a2.485 2.485 0 0 1-1.788 4.326l-1.284-.066a1.11 1.11 0 0 0-1.164 1.037v.146l.065 1.266a2.483 2.483 0 0 1-4.325 1.793l-.862-.956a1.11 1.11 0 0 0-1.65.005l-.862.95-.001.002a2.484 2.484 0 0 1-4.325-1.793l.066-1.283a1.113 1.113 0 0 0-1.04-1.163h-.146l-1.273.066a2.484 2.484 0 0 1-1.775-4.317l.002-.003.957-.86a1.11 1.11 0 0 0-.006-1.651l-.95-.86a2.486 2.486 0 0 1 .336-3.94 2.5 2.5 0 0 1 1.45-.384h.003l1.284.067a1.11 1.11 0 0 0 1.165-1.052v-.121L5.993 3.6a2.483 2.483 0 0 1 4.31-1.786l.003.001.87.954a1.11 1.11 0 0 0 1.566.08l.001-.001q.041-.037.078-.077l.001-.001.862-.957.003-.001a2.5 2.5 0 0 1 1.296-.752m.298 1.342c-.222.05-.423.166-.577.334v.001l-.86.952a2.485 2.485 0 0 1-3.687.003l-.002-.002-.864-.945a1.11 1.11 0 0 0-1.75.153 1.1 1.1 0 0 0-.174.642l.062 1.278q.008.131 0 .262A2.486 2.486 0 0 1 4.82 7.435l-1.282-.067a1.11 1.11 0 0 0-1.078.684 1.11 1.11 0 0 0 .28 1.246l.956.865.174.174a2.485 2.485 0 0 1-.175 3.512l-.953.859v.002a1.109 1.109 0 0 0 .79 1.925l1.279-.066h.254a2.487 2.487 0 0 1 2.358 2.359v.248l-.066 1.283a1.11 1.11 0 0 0 1.93.8l.001-.001.874-.963.171-.171a2.487 2.487 0 0 1 3.509.18l.862.955a1.11 1.11 0 0 0 1.93-.8l-.066-1.284v-.254a2.486 2.486 0 0 1 2.609-2.356l1.283.066a1.11 1.11 0 0 0 .798-1.93l-.952-.86-.185-.184a2.483 2.483 0 0 1 .18-3.507l.956-.86a1.11 1.11 0 0 0-.632-1.925l-.17-.005-1.281.067h-.26a2.485 2.485 0 0 1-2.35-2.609l.066-1.282a1.11 1.11 0 0 0-1.349-1.134"/></g><defs><clipPath id="a"><path fill="currentColor" d="M0 0h24v24H0z"/></clipPath></defs></svg>
